X: 127
T: Cantantibus organis – Andante
C: Franciszek Walczyński
%%abc-version 2.0
%%abcx-abcm2ps-target-version 5.9.1 (29 Sep 2008)
%%abc-creator hum2abc beta
%%abcx-conversion-date 2021/10/04 07:38:39
%%abc-edited-by Kamil Watkowski
%%abcx-initial-encoding-date 2021-08-09
%%humdrum-veritas 2932374712
%%humdrum-veritas-data 1153604930
%%linebreak <none>
%%barnumbers 0
L: 1/4
M: C
N: Derived from pl-kozmzk--mzk-m-346--029_walczynski-franciszek--cantantibus-organis-andante.krn
%%staves {1 2}
V: 1 clef=treble
V: 2 clef=bass
K: E
[V:1] G & G [I:setbarnb 1]| 
[V:2] G, & G, | 
[V:1] CDEF & CDEF | 
[V:2] C,D,E,F, & C,D,E,F, | 
[V:1] D3G & D3G- | 
[V:2] D,3G, & D,3G, | 
[V:1] edGd & GAF2- | 
[V:2] C2^B,2 & C,F,G,G,, | 
[V:1] !fermata!!breath!c3B & FD!fermata!EB | 
[V:2] C!fermata!!breath!G,2B, & !fermata!C,3B, | 
[V:1] EFGA & EFGA | 
[V:2] E,F,G,A, & E,F,G,A, | 
[V:1] !breath!F3B & F3B | 
[V:2] !breath!F,3B, & F,3B, | 
[V:1] eBA2 & G2FE | 
[V:2] B,EC2- & E,2F,2 | 
[V:1] !fermata!G3G & D3G | 
[V:2] C^A,!fermata!!breath!^B,G, & !fermata!G,3G, | 
[V:1] gecd & gecd | 
[V:2] GECD & GECD | 
[V:1] GECD & GECD | 
[V:2] G,E,C,D, & G,E,C,D, | 
[V:1] GEDG & EC2^B, | 
[V:2] zG,F,2- & G,,4 | 
[V:1] C3z & G,3x | 
[V:2] F,D,E,z & C,3G,, | 
[V:1] z4 & z4 | 
[V:2] z4 & A,,G,,F,,G,, | 
[V:1] zDC^B, & zA,G,2 | 
[V:2] zF,E,F, & C,,4- | 
[V:1] C4- | 
[V:2] [E,2G,2][F,A,][D,F,] & C,,4- | 
[V:1] !fermata!C4 |]  
[V:2] [E,4G,4] & !fermata!C,,4 |]  


